svg/600/outlined/format_ink_highlighter.svg

<svg xmlns="http://www.w3.org/2000/svg" width="48" height="48" viewBox="0 -960 960 960"><path d="M80 0v-134.001h800V0H80Zm508.913-487.566L476.174-600.305 313.393-437.523l113.304 112.739 162.216-162.782Zm-55.607-170.435L646.61-544.697l161.694-161.694-112.739-113.305-162.259 161.695Zm-85.48-27.218 226.567 226.001-182.13 181.565q-24.087 24.087-66.066 24.087t-66.066-24.087l-11-11-47.522 48.652h-155l125.087-125.087-4.565-4q-27.652-27.652-26.587-68.501 1.065-40.848 28.152-68.5l179.13-179.13Zm0 0 193.608-193.608q23.078-23.218 56.779-23.218 33.7 0 56.918 23.218l109.739 110.87q23.218 23.078 22.718 59.278-.5 36.201-23.718 59.419L674.393-459.218 447.826-685.219Z"/></svg>

<svg xmlns="http://www.w3.org/2000/svg" width="48" height="48" viewBox="0 -960 960 960"><path d="M80 0v-134h800V0H80Zm508.91-487.57L476.17-600.3 313.39-437.52 426.7-324.78l162.21-162.79ZM533.31-658l113.3 113.3L808.3-706.39 695.57-819.7 533.31-658Zm-85.48-27.22 226.56 226-182.13 181.57q-24.08 24.08-66.06 24.08-41.98 0-66.07-24.08l-11-11L301.61-240h-155L271.7-365.09l-4.57-4q-27.65-27.65-26.59-68.5 1.07-40.85 28.16-68.5l179.13-179.13Zm0 0 193.6-193.61q23.08-23.21 56.78-23.21t56.92 23.21l109.74 110.87q23.22 23.08 22.72 59.28t-23.72 59.42L674.39-459.22l-226.56-226Z"/></svg>
